svgs/regular/bus-simple.svg

<svg xmlns="http://www.w3.org/2000/svg" viewBox="0 0 448 512"><!--! Font Awesome Pro 6.6.0 by @fontawesome - https://fontawesome.com License - https://fontawesome.com/license (Commercial License) Copyright 2024 Fonticons, Inc. --><path d="M51.5 96l345.7 0C381.4 78.9 335.2 48 224 48C121.8 48 69.8 78.3 51.5 96zM400 144L48 144l0 80 352 0 0-80zm0 128L48 272l0 104c0 13.3 10.7 24 24 24l228.2 0 75.8 0c13.3 0 24-10.7 24-24l0-104zM10.2 70C35.9 38.7 103.8 0 224 0C352.6 0 414 38.6 438.4 70.6c7.5 9.8 9.6 20.9 9.6 29.9L448 376c0 25-12.7 47-32 59.9l0 52.1c0 13.3-10.7 24-24 24s-24-10.7-24-24l0-40-67.8 0L80 448l0 40c0 13.3-10.7 24-24 24s-24-10.7-24-24l0-52.1C12.7 423 0 401 0 376L0 100.4C0 91.6 2 80 10.2 70zM112 304a32 32 0 1 1 0 64 32 32 0 1 1 0-64zm224 0a32 32 0 1 1 0 64 32 32 0 1 1 0-64z"/></svg>

<svg xmlns="http://www.w3.org/2000/svg" viewBox="0 0 448 512"><!--! Font Awesome Pro 6.4.0 by @fontawesome - https://fontawesome.com License - https://fontawesome.com/license (Commercial License) Copyright 2023 Fonticons, Inc. --><path d="M51.5 96H397.2C381.4 78.9 335.2 48 224 48C121.8 48 69.8 78.3 51.5 96zM400 144H48v80H400V144zm0 128H48V376c0 13.3 10.7 24 24 24H300.2 376c13.3 0 24-10.7 24-24V272zM10.2 70C35.9 38.7 103.8 0 224 0C352.6 0 414 38.6 438.4 70.6c7.5 9.8 9.6 20.9 9.6 29.9V376c0 25-12.7 47-32 59.9V488c0 13.3-10.7 24-24 24s-24-10.7-24-24V448H300.2 80v40c0 13.3-10.7 24-24 24s-24-10.7-24-24V435.9C12.7 423 0 401 0 376V100.4C0 91.6 2 80 10.2 70zM112 304a32 32 0 1 1 0 64 32 32 0 1 1 0-64zm224 0a32 32 0 1 1 0 64 32 32 0 1 1 0-64z"/></svg>
